public/avatar/hat/71.svg

<svg xmlns:xlink="http://www.w3.org/1999/xlink" height="92.9" width="100.7" xmlns="http://www.w3.org/2000/svg"><use height="30.5" transform="translate(19.4 35)" width="39.55" xlink:href="#a"/><defs><g id="a"><path d="M12.05 6.95Q7.9-.85.1-.85q-5.95 0-11 8.05-2.5 4.05-3.85 8.05Q-17.7 8.3-17.3 1.4q.85-13.9 17.7-13.9 16.9 0 17.25 13.6.2 6.8-3 13.6-.5-3.9-2.6-7.75" fill="#80ddff" fill-rule="evenodd" transform="translate(19.25 14.75)"/><path d="M12.05 6.95Q7.9-.85.1-.85q-5.95 0-11 8.05-2.5 4.05-3.85 8.05Q-17.7 8.3-17.3 1.4q.85-13.9 17.7-13.9 16.9 0 17.25 13.6.2 6.8-3 13.6-.5-3.9-2.6-7.75Z" fill="none" stroke="#3e5bbf" stroke-linecap="round" stroke-linejoin="round" transform="translate(19.25 14.75)"/><path d="m.8-.85 3.05.2q3.6.65 6.3 2.85 4.4 3.5 4.25 10.6-3.1-1.1-7.75-3.35-2.85-1.4-4.65-6L.8-.85M-9.6 2.3Q-5.35-2.2.8-.85-.2 2.8-4.6 7.3q-4.35 4.5-9.75 6.75.5-7.25 4.75-11.75" fill="#db7e3b" fill-rule="evenodd" transform="translate(19.25 14.75)"/><path d="M10.9 3.2 12.6 5q-3.2-1.5-4-1.15-.25.1-.15.95.1.9-1.05 1.55-2 1.15-3.15 1L3.25 6q2 0 2.85-.5.35-.2.45-1.2.15-1 .85-1.45 1.35-.85 3.5.35M-7.35 4.8h-2q-.7-.05-.9-.9l-.1-.85 1.5-1.35-.15.7q0 .7.55.95l1.55-.05q1.05-.1 1.55.4.9.85.5 3.6l-1.5 1.15q.75-2.65.4-3.25-.25-.4-1.4-.4" fill="#ffddc5" fill-rule="evenodd" transform="translate(19.25 14.75)"/><path d="M14.4 12.8q-6.25-2.5-9.25-4.35-1.85-1.2-3.25-5.1L.9-.3q-3.1 5.35-5.85 8-2.75 2.6-9.4 6.35" fill="none" stroke="#b56024" stroke-linecap="round" stroke-linejoin="round" transform="translate(19.25 14.75)"/><path d="M14.3 11.05q-.75-5-2.9-7.85Q9.35.4 4.15-.8m-5.1-.25Q-7.1-.95-9.6 2.3t-4 7.25" fill="none" stroke="#ff9a54" stroke-linecap="round" stroke-linejoin="round" transform="translate(19.25 14.75)"/><path d="M5.3-14.1q1.9-.3 2.25 2.4l1-.65q1.2-.65 2.05-.6 1.4.1 1.1 4.35l1.2-1q1.4-.85 2.5-.3 1.8.95-.35 3.8l1.45-.2q1.5-.05 1.95.8.7 1.3-2.35 3.2l1.5.15q1.6.4 2.05 1.45.7 1.75-2.05 1.95l.85.35q.9.5 1 1.45.2 1.5-1.95 1.35l.9.6q.85.75.7 1.7-.15 1.5-1.95 1.35 1.7 1.55 1 2.7-.7 1.15-2.05 1.2l.45.5q.4.65.25 1.35-.2 1.15-1.55 1.2-2.5-1.4-2.15-2.9.2-.95 1.05-1.6.4-.35.75-.5-1.95-.9-1.5-2.3.3-.85 1.2-1.25l.85-.2-1.1-.7q-1.05-.9-.6-1.6l2.15-1.6Q13.5 1.7 13.2.6q-.2-.7.4-1.6l.65-.7q-2.65-.4-3.1-1.65-.25-.75.2-1.5l.45-.65q-2.2.25-2.9-.85L8.6-8.1Q6.25-6.6 5.15-6.95q-.7-.2-1.05-1.35l-.2-1.1q-.7 1.8-2.3 2.1-1 .2-1.6-1.4l-.4-1.65q-1.4 2.45-2.35 3-1 .55-3.5-1.95.9 2.7-.1 3.35-.95.7-4.05-.8 1.9 3.15.6 4.1-1.35.9-3.7-1.1 1.9 3.15.8 4.1-1.1.9-2.6 0 2.3 2 1.1 3.05-1.2 1.05-2.1.75.65.35 1.25.65 1.2.8.75 1.85-.65 1.65-1.55 1.85l.85.8q.75.95.4 1.65-.6 1.15-1.1 1.3l.9-.1q.9.05 1.15.5.4.75-.8 1.55-3.05-.9-3-2.25.05-.85.55-1.55l.5-.5q-1.4-.85-1.6-2.3-.1-.95.5-1.55l.65-.4q-2.4-1.5-1.75-2.9l1.45-1.45Q-19-.5-18.3-2.05q.45-.95 1.25-1.3l.7-.15q-1.45-1.7-.15-3.1 1.3-1.45 2.75-.15-.65-2.95.6-3.75 1.2-.85 3.15.85-.6-2.35 1.1-3.05 1.75-.7 3.2 1.25l.05-.9q.25-.95 1.5-1.3 1.95-.6 2.2 1.65l.35-1.1q.6-1.1 1.8-1.15 1.85-.05 2.2 2.55l.75-1.05q1-1.15 2.15-1.35" fill="#fff" fill-rule="evenodd" transform="translate(19.25 14.75)"/><path d="M5.3-14.1q1.9-.3 2.25 2.4l1-.65q1.2-.65 2.05-.6 1.4.1 1.1 4.35l1.2-1q1.4-.85 2.5-.3 1.8.95-.35 3.8l1.45-.2q1.5-.05 1.95.8.7 1.3-2.35 3.2l1.5.15q1.6.4 2.05 1.45.7 1.75-2.05 1.95l.85.35q.9.5 1 1.45.2 1.5-1.95 1.35l.9.6q.85.75.7 1.7-.15 1.5-1.95 1.35 1.7 1.55 1 2.7-.7 1.15-2.05 1.2l.45.5q.4.65.25 1.35-.2 1.15-1.55 1.2-2.5-1.4-2.15-2.9.2-.95 1.05-1.6.4-.35.75-.5-1.95-.9-1.5-2.3.3-.85 1.2-1.25l.85-.2-1.1-.7q-1.05-.9-.6-1.6l2.15-1.6Q13.5 1.7 13.2.6q-.2-.7.4-1.6l.65-.7q-2.65-.4-3.1-1.65-.25-.75.2-1.5l.45-.65q-2.2.25-2.9-.85L8.6-8.1Q6.25-6.6 5.15-6.95q-.7-.2-1.05-1.35l-.2-1.1q-.7 1.8-2.3 2.1-1 .2-1.6-1.4l-.4-1.65q-1.4 2.45-2.35 3-1 .55-3.5-1.95.9 2.7-.1 3.35-.95.7-4.05-.8 1.9 3.15.6 4.1-1.35.9-3.7-1.1 1.9 3.15.8 4.1-1.1.9-2.6 0 2.3 2 1.1 3.05-1.2 1.05-2.1.75.65.35 1.25.65 1.2.8.75 1.85-.65 1.65-1.55 1.85l.85.8q.75.95.4 1.65-.6 1.15-1.1 1.3l.9-.1q.9.05 1.15.5.4.75-.8 1.55-3.05-.9-3-2.25.05-.85.55-1.55l.5-.5q-1.4-.85-1.6-2.3-.1-.95.5-1.55l.65-.4q-2.4-1.5-1.75-2.9l1.45-1.45Q-19-.5-18.3-2.05q.45-.95 1.25-1.3l.7-.15q-1.45-1.7-.15-3.1 1.3-1.45 2.75-.15-.65-2.95.6-3.75 1.2-.85 3.15.85-.6-2.35 1.1-3.05 1.75-.7 3.2 1.25l.05-.9q.25-.95 1.5-1.3 1.95-.6 2.2 1.65l.35-1.1q.6-1.1 1.8-1.15 1.85-.05 2.2 2.55l.75-1.05q1-1.15 2.15-1.35Z" fill="none" stroke="#6d94e8" stroke-linecap="round" stroke-linejoin="round" transform="translate(19.25 14.75)"/><path d="M-15.6-.9q1.25 1.35 2 .75.75-.6.2-2.85m.45-1.3q2.35 2.1 3 1.35.6-.75-.75-3m.25-1.75q2.75 2 3.6 1.25.9-.75.25-2.5m1.4-1 .35 1.25q.55 1.1 1.5.65 1.5-.75 2.4-2.5m1.5-.15.1 1.1q.2 1.1.75 1.15.9.15 1.9-1.6m.85.25.25.95q.45.95 1.15 1.05 1.1.1 2.25-1m1.6 1 1.15 1.35 2.1-.1m.15 1.35-.25.8q-.1.9.6 1.2l1.5.65m.25 1.05-1 1.85q.35.5 2 1m.35 1.35L14.6 4.2l1.15 1.5M-15.4.7q1.5 1.65.8 2.15l-1.5.85" fill="none" stroke="#b2d9ff" stroke-linecap="round" stroke-linejoin="round" transform="translate(19.25 14.75)"/></g></defs></svg>

<?xml version="1.0" encoding="UTF-8" standalone="no"?>
<svg xmlns:xlink="http://www.w3.org/1999/xlink" height="92.9px" width="100.7px" xmlns="http://www.w3.org/2000/svg">
  <g transform="matrix(1.0, 0.0, 0.0, 1.0, 38.65, 49.75)">
    <use height="30.5" transform="matrix(1.0, 0.0, 0.0, 1.0, -19.25, -14.75)" width="39.55" xlink:href="#shape0"/>
  </g>
  <defs>
    <g id="shape0" transform="matrix(1.0, 0.0, 0.0, 1.0, 19.25, 14.75)">
      <path d="M12.05 6.95 Q7.9 -0.85 0.1 -0.85 -5.85 -0.85 -10.9 7.2 -13.4 11.25 -14.75 15.25 -17.7 8.3 -17.3 1.4 -16.45 -12.5 0.4 -12.5 17.3 -12.5 17.65 1.1 17.85 7.9 14.65 14.7 14.15 10.8 12.05 6.95" fill="#80ddff" fill-rule="evenodd" stroke="none"/>
      <path d="M12.05 6.95 Q7.9 -0.85 0.1 -0.85 -5.85 -0.85 -10.9 7.2 -13.4 11.25 -14.75 15.25 -17.7 8.3 -17.3 1.4 -16.45 -12.5 0.4 -12.5 17.3 -12.5 17.65 1.1 17.85 7.9 14.65 14.7 14.15 10.8 12.05 6.95 Z" fill="none" stroke="#3e5bbf" stroke-linecap="round" stroke-linejoin="round" stroke-width="1.0"/>
      <path d="M0.8 -0.85 L3.85 -0.65 Q7.45 0.0 10.15 2.2 14.55 5.7 14.4 12.8 11.3 11.7 6.65 9.45 3.8 8.05 2.0 3.45 L0.8 -0.85" fill="#db7e3b" fill-rule="evenodd" stroke="none"/>
      <path d="M-9.6 2.3 Q-5.35 -2.2 0.8 -0.85 -0.2 2.8 -4.6 7.3 -8.95 11.8 -14.35 14.05 -13.85 6.8 -9.6 2.3" fill="#db7e3b" fill-rule="evenodd" stroke="none"/>
      <path d="M10.9 3.2 L12.6 5.0 Q9.4 3.5 8.6 3.85 8.35 3.95 8.45 4.8 8.55 5.7 7.4 6.35 5.4 7.5 4.25 7.35 L3.25 6.0 Q5.25 6.0 6.1 5.5 6.45 5.3 6.55 4.3 6.7 3.3 7.4 2.85 8.75 2.0 10.9 3.2" fill="#ffddc5" fill-rule="evenodd" stroke="none"/>
      <path d="M-7.35 4.8 L-9.35 4.8 Q-10.05 4.75 -10.25 3.9 L-10.35 3.05 -8.85 1.7 -9.0 2.4 Q-9.0 3.1 -8.45 3.35 L-6.9 3.3 Q-5.85 3.2 -5.35 3.7 -4.45 4.55 -4.85 7.3 L-6.35 8.45 Q-5.6 5.8 -5.95 5.2 -6.2 4.8 -7.35 4.8" fill="#ffddc5" fill-rule="evenodd" stroke="none"/>
      <path d="M14.4 12.8 Q8.15 10.3 5.15 8.45 3.3 7.25 1.9 3.35 L0.9 -0.3 Q-2.2 5.05 -4.95 7.7 -7.7 10.3 -14.35 14.05" fill="none" stroke="#b56024" stroke-linecap="round" stroke-linejoin="round" stroke-width="1.0"/>
      <path d="M14.3 11.05 Q13.55 6.05 11.4 3.2 9.35 0.4 4.15 -0.8" fill="none" stroke="#ff9a54" stroke-linecap="round" stroke-linejoin="round" stroke-width="1.0"/>
      <path d="M-0.95 -1.05 Q-7.1 -0.95 -9.6 2.3 -12.1 5.55 -13.6 9.55" fill="none" stroke="#ff9a54" stroke-linecap="round" stroke-linejoin="round" stroke-width="1.0"/>
      <path d="M5.3 -14.1 Q7.2 -14.4 7.55 -11.7 L8.55 -12.35 Q9.75 -13.0 10.6 -12.95 12.0 -12.85 11.7 -8.6 L12.9 -9.6 Q14.3 -10.45 15.4 -9.9 17.2 -8.95 15.05 -6.1 L16.5 -6.3 Q18.0 -6.35 18.45 -5.5 19.15 -4.2 16.1 -2.3 L17.6 -2.15 Q19.2 -1.75 19.65 -0.7 20.35 1.05 17.6 1.25 L18.45 1.6 Q19.35 2.1 19.45 3.05 19.65 4.55 17.5 4.4 L18.4 5.0 Q19.25 5.75 19.1 6.7 18.95 8.2 17.15 8.05 18.85 9.6 18.15 10.75 17.45 11.9 16.1 11.95 L16.55 12.45 Q16.95 13.1 16.8 13.8 16.6 14.95 15.25 15.0 12.75 13.6 13.1 12.1 13.3 11.15 14.15 10.5 14.55 10.15 14.9 10.0 12.95 9.1 13.4 7.7 13.7 6.85 14.6 6.45 L15.45 6.25 14.35 5.55 Q13.3 4.65 13.75 3.95 L15.9 2.35 Q13.5 1.7 13.2 0.6 13.0 -0.1 13.6 -1.0 L14.25 -1.7 Q11.6 -2.1 11.15 -3.35 10.9 -4.1 11.35 -4.85 L11.8 -5.5 Q9.6 -5.25 8.9 -6.35 L8.6 -8.1 Q6.25 -6.6 5.15 -6.95 4.45 -7.15 4.1 -8.3 L3.9 -9.4 Q3.2 -7.6 1.6 -7.3 0.6 -7.1 0.0 -8.7 L-0.4 -10.35 Q-1.8 -7.9 -2.75 -7.35 -3.75 -6.8 -6.25 -9.3 -5.35 -6.6 -6.35 -5.95 -7.3 -5.25 -10.4 -6.75 -8.5 -3.6 -9.8 -2.65 -11.15 -1.75 -13.5 -3.75 -11.6 -0.6 -12.7 0.35 -13.8 1.25 -15.3 0.35 -13.0 2.35 -14.2 3.4 -15.4 4.45 -16.3 4.15 -15.65 4.5 -15.05 4.8 -13.85 5.6 -14.3 6.65 -14.95 8.3 -15.85 8.5 L-15.0 9.3 Q-14.25 10.25 -14.6 10.95 -15.2 12.1 -15.7 12.25 L-14.8 12.15 Q-13.9 12.2 -13.65 12.65 -13.25 13.4 -14.45 14.2 -17.5 13.3 -17.45 11.95 -17.4 11.1 -16.9 10.4 L-16.4 9.9 Q-17.8 9.05 -18.0 7.6 -18.1 6.65 -17.5 6.05 L-16.85 5.65 Q-19.25 4.15 -18.6 2.75 L-17.15 1.3 Q-19.0 -0.5 -18.3 -2.05 -17.85 -3.0 -17.05 -3.35 L-16.35 -3.5 Q-17.8 -5.2 -16.5 -6.6 -15.2 -8.05 -13.75 -6.75 -14.4 -9.7 -13.15 -10.5 -11.95 -11.35 -10.0 -9.65 -10.6 -12.0 -8.9 -12.7 -7.15 -13.4 -5.7 -11.45 L-5.65 -12.35 Q-5.4 -13.3 -4.15 -13.65 -2.2 -14.25 -1.95 -12.0 L-1.6 -13.1 Q-1.0 -14.2 0.2 -14.25 2.05 -14.3 2.4 -11.7 L3.15 -12.75 Q4.15 -13.9 5.3 -14.1" fill="#ffffff" fill-rule="evenodd" stroke="none"/>
      <path d="M5.3 -14.1 Q7.2 -14.4 7.55 -11.7 L8.55 -12.35 Q9.75 -13.0 10.6 -12.95 12.0 -12.85 11.7 -8.6 L12.9 -9.6 Q14.3 -10.45 15.4 -9.9 17.2 -8.95 15.05 -6.1 L16.5 -6.3 Q18.0 -6.35 18.45 -5.5 19.15 -4.2 16.1 -2.3 L17.6 -2.15 Q19.2 -1.75 19.65 -0.7 20.35 1.05 17.6 1.25 L18.45 1.6 Q19.35 2.1 19.45 3.05 19.65 4.55 17.5 4.4 L18.4 5.0 Q19.25 5.75 19.1 6.7 18.95 8.2 17.15 8.05 18.85 9.6 18.15 10.75 17.45 11.9 16.1 11.95 L16.55 12.45 Q16.95 13.1 16.8 13.8 16.6 14.95 15.25 15.0 12.75 13.6 13.1 12.1 13.3 11.15 14.15 10.5 14.55 10.15 14.9 10.0 12.95 9.1 13.4 7.7 13.7 6.85 14.6 6.45 L15.45 6.25 14.35 5.55 Q13.3 4.65 13.75 3.95 L15.9 2.35 Q13.5 1.7 13.2 0.6 13.0 -0.1 13.6 -1.0 L14.25 -1.7 Q11.6 -2.1 11.15 -3.35 10.9 -4.1 11.35 -4.85 L11.8 -5.5 Q9.6 -5.25 8.9 -6.35 L8.6 -8.1 Q6.25 -6.6 5.15 -6.95 4.45 -7.15 4.1 -8.3 L3.9 -9.4 Q3.2 -7.6 1.6 -7.3 0.6 -7.1 0.0 -8.7 L-0.4 -10.35 Q-1.8 -7.9 -2.75 -7.35 -3.75 -6.8 -6.25 -9.3 -5.35 -6.6 -6.35 -5.95 -7.3 -5.25 -10.4 -6.75 -8.5 -3.6 -9.8 -2.65 -11.15 -1.75 -13.5 -3.75 -11.6 -0.6 -12.7 0.35 -13.8 1.25 -15.3 0.35 -13.0 2.35 -14.2 3.4 -15.4 4.45 -16.3 4.15 -15.65 4.5 -15.05 4.8 -13.85 5.6 -14.3 6.65 -14.95 8.3 -15.85 8.5 L-15.0 9.3 Q-14.25 10.25 -14.6 10.95 -15.2 12.1 -15.7 12.25 L-14.8 12.15 Q-13.9 12.2 -13.65 12.65 -13.25 13.4 -14.45 14.2 -17.5 13.3 -17.45 11.95 -17.4 11.1 -16.9 10.4 L-16.4 9.9 Q-17.8 9.05 -18.0 7.6 -18.1 6.65 -17.5 6.05 L-16.85 5.65 Q-19.25 4.15 -18.6 2.75 L-17.15 1.3 Q-19.0 -0.5 -18.3 -2.05 -17.85 -3.0 -17.05 -3.35 L-16.35 -3.5 Q-17.8 -5.2 -16.5 -6.6 -15.2 -8.05 -13.75 -6.75 -14.4 -9.7 -13.15 -10.5 -11.95 -11.35 -10.0 -9.65 -10.6 -12.0 -8.9 -12.7 -7.15 -13.4 -5.7 -11.45 L-5.65 -12.35 Q-5.4 -13.3 -4.15 -13.65 -2.2 -14.25 -1.95 -12.0 L-1.6 -13.1 Q-1.0 -14.2 0.2 -14.25 2.05 -14.3 2.4 -11.7 L3.15 -12.75 Q4.15 -13.9 5.3 -14.1 Z" fill="none" stroke="#6d94e8" stroke-linecap="round" stroke-linejoin="round" stroke-width="1.0"/>
      <path d="M-15.6 -0.9 Q-14.35 0.45 -13.6 -0.15 -12.85 -0.75 -13.4 -3.0" fill="none" stroke="#b2d9ff" stroke-linecap="round" stroke-linejoin="round" stroke-width="1.0"/>
      <path d="M-12.95 -4.3 Q-10.6 -2.2 -9.95 -2.95 -9.35 -3.7 -10.7 -5.95" fill="none" stroke="#b2d9ff" stroke-linecap="round" stroke-linejoin="round" stroke-width="1.0"/>
      <path d="M-10.45 -7.7 Q-7.7 -5.7 -6.85 -6.45 -5.95 -7.2 -6.6 -8.95" fill="none" stroke="#b2d9ff" stroke-linecap="round" stroke-linejoin="round" stroke-width="1.0"/>
      <path d="M-5.2 -9.95 L-4.85 -8.7 Q-4.3 -7.6 -3.35 -8.05 -1.85 -8.8 -0.95 -10.55" fill="none" stroke="#b2d9ff" stroke-linecap="round" stroke-linejoin="round" stroke-width="1.0"/>
      <path d="M0.55 -10.7 L0.65 -9.6 Q0.85 -8.5 1.4 -8.45 2.3 -8.3 3.3 -10.05" fill="none" stroke="#b2d9ff" stroke-linecap="round" stroke-linejoin="round" stroke-width="1.0"/>
      <path d="M4.15 -9.8 L4.4 -8.85 Q4.85 -7.9 5.55 -7.8 6.65 -7.7 7.8 -8.8" fill="none" stroke="#b2d9ff" stroke-linecap="round" stroke-linejoin="round" stroke-width="1.0"/>
      <path d="M9.4 -7.8 L10.55 -6.45 12.65 -6.55" fill="none" stroke="#b2d9ff" stroke-linecap="round" stroke-linejoin="round" stroke-width="1.0"/>
      <path d="M12.8 -5.2 L12.55 -4.4 Q12.45 -3.5 13.15 -3.2 L14.65 -2.55" fill="none" stroke="#b2d9ff" stroke-linecap="round" stroke-linejoin="round" stroke-width="1.0"/>
      <path d="M14.9 -1.5 L13.9 0.35 Q14.25 0.85 15.9 1.35" fill="none" stroke="#b2d9ff" stroke-linecap="round" stroke-linejoin="round" stroke-width="1.0"/>
      <path d="M16.25 2.7 L14.6 4.2 15.75 5.7" fill="none" stroke="#b2d9ff" stroke-linecap="round" stroke-linejoin="round" stroke-width="1.0"/>
      <path d="M-15.4 0.7 Q-13.9 2.35 -14.6 2.85 L-16.1 3.7" fill="none" stroke="#b2d9ff" stroke-linecap="round" stroke-linejoin="round" stroke-width="1.0"/>
    </g>
  </defs>
</svg>
